svgs/sharp-solid/blueberries.svg

<svg xmlns="http://www.w3.org/2000/svg" viewBox="0 0 512 512"><!--! Font Awesome Pro 6.6.0 by @fontawesome - https://fontawesome.com License - https://fontawesome.com/license (Commercial License) Copyright 2024 Fonticons, Inc. --><path d="M512 176C512 78.8 433.2 0 336 0C255.4 0 187.4 54.2 166.6 128.2c3.1-.1 6.3-.2 9.4-.2c114.9 0 208 93.1 208 208c0 3.2-.1 6.3-.2 9.4C457.8 324.6 512 256.6 512 176zM176 512a176 176 0 1 0 0-352 176 176 0 1 0 0 352zm16-304l0 16 0 32 32 0 16 0 0 32-16 0-32 0 0 32 0 16-32 0 0-16 0-32-32 0-16 0 0-32 16 0 32 0 0-32 0-16 32 0zM384 64l0 32 32 0 16 0 0 32-16 0-32 0 0 32 0 16-32 0 0-16 0-32-32 0-16 0 0-32 16 0 32 0 0-32 0-16 32 0 0 16z"/></svg>

<svg xmlns="http://www.w3.org/2000/svg" viewBox="0 0 512 512"><!--! Font Awesome Pro 6.4.2 by @fontawesome - https://fontawesome.com License - https://fontawesome.com/license (Commercial License) Copyright 2023 Fonticons, Inc. --><path d="M512 176C512 78.8 433.2 0 336 0C255.4 0 187.4 54.2 166.6 128.2c3.1-.1 6.3-.2 9.4-.2c114.9 0 208 93.1 208 208c0 3.2-.1 6.3-.2 9.4C457.8 324.6 512 256.6 512 176zM176 512a176 176 0 1 0 0-352 176 176 0 1 0 0 352zm16-304v16 32h32 16v32H224 192v32 16H160V320 288H128 112V256h16 32V224 208h32zM384 64V96h32 16v32H416 384v32 16H352V160 128H320 304V96h16 32V64 48h32V64z"/></svg>
